X:1
T:Gentle Rain
T:Matt Dudley and Luiz Bonfa
T:Gentle Rain
C:Matt Dudley
Z:All Rights Reserved
L:1/8
Q:1/4=120
M:4/4
K:C
V:1 treble nm="MusicXML Part"
%%MIDI channel 2
%%MIDI program 0
%%MIDI control 7 102
%%MIDI control 10 64
V:1
"Am7" E6 DC | C6 DE |"Bm7b5" E6 DC |"E7" B,6 CD |"Am7" E8-"D7" |"Gm7" E4"C7" EGEC |"F6" D8- | %7
w: We both are|lost and a-|lone in the|world walk with|me|_ in the gen- tle|rain|
w: I fell your|tears as they|fall on my|cheek they are|warm|_ like a gen- tle|rain|
 D4 z4 |"F#m7b5" c6 BA |"B7b9" A6 G^F |"Em7b5" _B6 AG |"A7b9" G6 FE |"Dm7b5" _A6 GF | %13
w: _|don't be a-|fraid I've a|hand for your|hand and I|will be your|
w: _|Come lit- tle|one you have|me in the|world and our|love will be|
"Bm7b5" F6"E7" ED |1"Am6" E8- |"Bb75b9#9#11b13" E4 z4 :|"Am7" E8-"D7" |2"Gm7" E4"C7" EGEC || %18
w: love for a-|while|_||* like a gen- tle|
w: sad will be|sweet|_|||
"F6" D8- |"C7" D4 EGEC |"F6" D8- |"Em7" D4 BdBG |"Am7" A8-"^(" |"E75b9#9#11b13" A4"^)" z4 |] %24
w: rain|_ like a gen- tle|rain|_ like a gen- tle|rain|_|
w: ||||||

